X: 866
T: Sal's Got Mud Between Her Toes
B: jims roots
M:4/4
L:1/8
R: reel
Q: 1/4=100
K:Dmaj
V:1 
%Z: Mix O'Lydian
%S: <a href="http://thesession.org/tunes/14197#setting25817" rel="nofollow">http://thesession.org/tunes/14197#setting25817</a>
|: DF | "D"A2 A2 FEDE | FAAB A2 DF | F2 A2 BAFD | FE D2 "A"E3 E |
"D"F2 A2 BAFD | F2 AB A3 A | BABA FEDF | "A"E2 D2 "D"D2:|
|: AB | "D"d2 d2 (3BdB AB | d2 d2 f4 | f3 a fede | f2 f2 "A"e3 e|
"D"f2 a2 fedA | B2 d2 B4 | d2 B2 FE DF | "A"E2 D2 "D"D2:|
|: A,B,|"D"D2 D2 (3B,DB, A,B, | D2 D2 F3F | FEDF EDB,A, | DEDB, "A"A,2 A,B, |
"D"D2 D2 (3B,DB, A,B, | D2 D2 F3 F | FEDF EDB,A, | "A"B,D D2 "D"D2:|
% abcbook-tune_id 6298c287d48f4156a589c1af


% abcbook-boost 0
% abcbook-tablature 
% abcbook-transpose 
% abcbook-lastupdated 1654178440113
% abcbook-soundfonts 
% abcbook-repeats 1


